actions/24/folder-sync.svg

<svg xmlns="http://www.w3.org/2000/svg" viewBox="0 0 24 24" width="24" height="24">
  <defs id="defs3051">
    <style type="text/css" id="current-color-scheme">
      .ColorScheme-Text {
        color:#eff0f1;
      }
      </style>
  </defs>
  <g transform="translate(1,1)">
    <path style="fill:currentColor;fill-opacity:1;stroke:none" d="m3 3v1 15h1 9v-1h-9v-8h3v-.009766l.007813.009766 2-2h8.992188v5h1v-8h-6.992188l-2-2-.007812.009766v-.009766h-6-1m13.5 11c-1.385 0-2.5 1.115-2.5 2.5 0 .433427.118052.834808.310547 1.189453l.759765-.759765c-.041025-.137094-.070312-.278897-.070312-.429688 0-.831.669-1.5 1.5-1.5.150791 0 .292594.029287.429688.070312l.759765-.759765c-.354645-.192495-.756026-.310547-1.189453-.310547m2.189453 1.310547l-.759765.759765c.041026.137094.070312.278897.070312.429688 0 .831-.669 1.5-1.5 1.5-.150791 0-.292594-.029286-.429688-.070312l-.759765.759765c.354645.192495.756026.310547 1.189453.310547 1.385 0 2.5-1.115 2.5-2.5 0-.433427-.118052-.834808-.310547-1.189453" class="ColorScheme-Text"/>
  </g>
</svg>

<svg xmlns="http://www.w3.org/2000/svg" viewBox="0 0 24 24" width="24" height="24">
  <defs id="defs3051">
    <style type="text/css" id="current-color-scheme">.ColorScheme-Text {color:#fcfcfc;}</style>
  </defs>
  <g transform="translate(1,1)">
    <path style="fill:currentColor;fill-opacity:1;stroke:none" d="m 3,6 c 0,3 0,7 0,10 0,3 3,3 3,3 h 7 V 18 H 6 c 0,0 -2,0 -2,-2 0,-2 0,-4 0,-5 0,-1 1,-1 1,-1 h 2 v -0.00977 L 7.0078125,10 l 2,-2 H 16 c 0,0 2,0 2,2 0,2 0,3 0,3 h 1 c 0,0 0,-2 0,-5 0,-3 -3,-3 -3,-3 h -3.992188 l -2,-2 L 10,3.0097656 V 3 H 6 C 6,3 3,3 3,6 Z m 13.5,8 c -1.384999,0 -2.5,1.115001 -2.5,2.5 0,0.433427 0.118052,0.834808 0.310547,1.189453 l 0.759765,-0.759765 C 15.029288,16.792594 15,16.650791 15,16.5 15,15.669001 15.669001,15 16.5,15 c 0.150791,0 0.292594,0.02929 0.429688,0.07031 l 0.759765,-0.759765 C 17.334808,14.118052 16.933427,14 16.5,14 Z m 2.189453,1.310547 -0.759765,0.759765 C 17.970713,16.207406 18,16.349209 18,16.5 c 0,0.830999 -0.669001,1.5 -1.5,1.5 -0.150791,0 -0.292594,-0.02929 -0.429688,-0.07031 l -0.759765,0.759765 C 15.665192,18.881948 16.066573,19 16.5,19 17.884999,19 19,17.884999 19,16.5 19,16.066573 18.881948,15.665192 18.689453,15.310547 Z" class="ColorScheme-Text"/>
  </g>
</svg>
